X: 74
T: Show Polka 2 - Le Petit Coin*
T: Le Petit Coin
L:1/16
K: Gmaj
|:Bc|"G"d2e2 d2Bc|d2e2d4|"C"gfed cBAG|B2A2 "D"A2Bc|
"Em7/G"d2e2 d2Bc|d2e2 d4|"C"gdcB "D"AGAB|"G"G2d2 G2:|
|:gf|"C"e2d2 BcdB|"Am"e2A2 ABcA|"G/B"d2G2 G2AB|"Am"cBcd "G/B"edgf|
"C"e2d2 BcdB|"Am7"e2A2 ABcA|"D"d2G2 G2AB|cdef "Em"g2:|
%%newpage

